modules/hawcons-filled/icons/folders.svg

<?xml version="1.0" encoding="UTF-8" standalone="no"?>
<svg width="32px" height="32px" viewBox="0 0 32 32" version="1.1" xmlns="http://www.w3.org/2000/svg" xmlns:xlink="http://www.w3.org/1999/xlink" xmlns:sketch="http://www.bohemiancoding.com/sketch/ns">
    <!-- Generator: Sketch 3.0.3 (7891) - http://www.bohemiancoding.com/sketch -->
    <title>icon 96 folders</title>
    <desc>Created with Sketch.</desc>
    <defs></defs>
    <g id="Page-1" stroke="none" stroke-width="1" fill="none" fill-rule="evenodd" sketch:type="MSPage">
        <g id="icon-96-folders" sketch:type="MSArtboardGroup" fill="#929292">
            <path d="M3.33066907e-16,15 L3.33066907e-16,8.991155 C3.33066907e-16,7.88967395 0.896666251,7 2.00276013,7 L13,7 L15,11 L26.9941413,11 C28.1029399,11 29,11.8932319 29,12.9950893 L29,15 L0,15 L3.33066907e-16,15 Z M0,16 L0,27.008845 C0,28.1085295 0.899712682,29 1.99328744,29 L27.0067126,29 C28.1075748,29 29,28.1073772 29,27.0049107 L29,16 L0,16 L0,16 Z M3,6 L3,4.991155 C3,3.88967395 3.89666625,3 5.00276013,3 L16,3 L18,7 L29.9941413,7 C31.1029399,7 32,7.8932319 32,8.99508929 L32,23.0049107 C32,24.1073772 31.1075748,25 30.0067126,25 L30,25 L30,13.0001262 C30,11.3432023 28.6576211,10 26.9966488,10 L16,10 L14,6 L3,6 L3,6 L3,6 Z" id="folders" sketch:type="MSShapeGroup"></path>
        </g>
    </g>
</svg>

<svg width="32" height="32" viewBox="0 0 32 32" xmlns="http://www.w3.org/2000/svg"><path d="M0 15V8.991C0 7.89.897 7 2.003 7H13l2 4h11.994A2 2 0 0 1 29 12.995V15H0zm0 1v11.009C0 28.109.9 29 1.993 29h25.014c1.1 0 1.993-.893 1.993-1.995V16H0zM3 6V4.991C3 3.89 3.897 3 5.003 3H16l2 4h11.994A2 2 0 0 1 32 8.995v14.01A1.994 1.994 0 0 1 30.007 25H30V13a3 3 0 0 0-3.003-3H16l-2-4H3z" fill="#929292" fill-rule="evenodd"/></svg>
